X:1
T: The Althole Volunteer's March
C:Niel Gow
R:Reel
I:speed 232
Q:232
K:F
M:4/4
L:1/8
|:C2|F2 F3/2F1/2 c2 c3/2c1/2|f3/2g1/4a1/4 gf ed cB|A3/2F1/2 c3/2A1/2 f3/2c1/2 d3/2A1/2|B2 G3/2G1/2 G2 c1/2B1/2A1/2G1/2|
F2 F3/2F1/2 c2 c3/2c1/2|f3/2g1/4a1/4 gf ed c2|dB b3/2g1/2 a3/2f1/2 g3/2e1/2|f2 f3/2f1/2 f2:|
fg1/2a1/2|b3g a3f|fg1/2a1/2 gf ed cB|A3/2F1/2 c3/2A1/2 f3/2c1/2 d3/2A1/2|B2 G3/2G1/2 G2 f3/2g1/2|
a3/2g1/2 fa g3/2f1/2 eg|f3/2e1/2 df ed c2|dB b3/2g1/2 a3/2f1/2 g3/2e1/2|f2 f3/2f1/2 f2 fg1/2a1/2|
b3g a3f|fg1/2a1/2 gf ed cB|A3/2F1/2 c3/2A1/2 f3/2c1/2 d3/2A1/2|B2 G3/2G1/2 G2 c1/2B1/2A1/2G1/2|
F2 F3/2F1/2 c2 c3/2c1/2|f3/2g1/4a1/4 gf ed c2|dB b3/2g1/2 a3/2f1/2 g3/2e1/2|f2 f3/2f1/2 f2||
